X:176
T:Kicsi csillag ha leesik, elterül
O: Jávárdipataka, 1962
Q: "Tempo guisto" 1/4=87
M:4/4
L:1/4
K:F
(5:4:4 B/c/ d/ d (5:4:4 B/c/ d/d |(3:2:2 G G2 F z | 
(5:4:4 B/c/ d/ d (5:4:4 c/c/ f/d |(3:2:2 d B2 B z | 
(5:4:2 g f3/2  (5:4:2 dB3/2 | (3:2:4 c/c/ g f  (3:2:4 d/c/ G z |
(3:2:4 B/c/d B (3:2:4 d/c/ F B | A<G G z | 

